X:1
T:Ave Maris Stella
T:Johann Stadlmayr (1575 - 1648) Amen by Palestrina
T:Ave Maris Stella
T:Copyright © 2015 by The Choral Public Domain Library. Edition may be freely distributed, duplicated, performed or recorded.
T:Copyright © 2015 by The Choral Public Domain Library. Edition may be freely distributed, duplicated, performed or recorded.
T:Copyright © 2015 by The Choral Public Domain Library. Edition may be freely distributed, duplicated, performed or recorded.
T:Copyright © 2015 by The Choral Public Domain Library. Edition may be freely distributed, duplicated, performed or recorded.
T:Copyright © 2015 by The Choral Public Domain Library. Edition may be freely distributed, duplicated, performed or recorded.
T:Copyright © 2015 by The Choral Public Domain Library. Edition may be freely distributed, duplicated, performed or recorded.
C:Johann Stadlmayr
C:(1575 - 1648)
C:Amen by Palestrina
Z:Copyright © 2015 by The Choral Public Domain Library. Edition may be freely distributed, duplicated, performed or recorded.
%%score [ 1 2 3 4 ]
L:1/8
Q:1/2=56
M:4/4
K:C
V:1 treble nm="Soprano" snm="S."
V:2 treble nm="Alto" snm="A."
V:3 treble-8 transpose=-12 nm="Tenor" snm="T."
V:4 bass nm="Baritone" snm="Bar."
V:1
 z30 | z22 | z30 | z18 ||[M:4/2][Q:1/2=112] D8 (A8 | B8) G8 | (A12 B4 | c8 d8) | (c4 B4 A8-) | %9
w: ||||2.~Su- mens|_ il-|lud _|_ _|A- * *|
w: ||||4.~Mon- stra|_ te\_es-|se _|_ _|ma- * *|
w: ||||6.~Vi- tam|_ prae-|sta _|_ _|pu- * *|
 (A8 G8) | A8 z8 | A12 A4 | D8 E8 | F12 E2 F2 | G8 F4 E4- | E2 D2 D8 ^C4 | D8 z4 A4 | (G6 A2 B8) | %18
w: |ve|Ga- bri-|e- lis|o- * *|* re, o-||re, fun-|da _ _|
w: |trem,|su- mat|per te|pre- * *|* ces, pre-||ces, qui|pro _ _|
w: |ram,|i- ter|pa- ra|tu- * *|* tum, tu-||tum: ut|vi- * *|
 A8 A8 | (F2 G2 A2 G2 F8) | E4 G4 G8 | G16- | G8 A8 | (F16 | E16) | D16 || %26
w: nos in|pa- * * * *|ce, mu- tans|E-|* vae|no-||men.|
w: no- bis|na- * * * *|tus, tu- lit|es-|* se|tu-||us.|
w: den- tes|Je- * * * *|sum, sem- per|col-|* lae-|te-||mur.|
[Q:1/2=56][Q:1/2=56] z30 | z22 | z30 | z18 ||[M:4/2][Q:1/2=84] A6 G2 F2 E2 D4 | C4 c6 _B2 A2 G2 | %32
w: ||||A- * * * *|men, A- * * *|
w: ||||||
w: ||||||
 F4 E2 F2 G8- | G4 ^F2 E2 F8 |] %34
w: |* * * men.|
w: ||
w: ||
V:2
 z30 | z22 | z30 | z18 ||[M:4/2] z8 A,8 | (D8 E8) | C8 (D8 | E8 F8 | G8) (E8 | F8 E8) | D16 | %11
w: ||||2.~Su-|mens _|il- lud|_ _|* A-||ve|
w: ||||4.~Mon-|stra _|te\_es- se|_ _|* ma-||trem,|
w: ||||6.~Vi-|tam _|prae- sta|_ _|* pu-||ram,|
 F12 F4 | F8 E8 | D8 A,8 | z8 C4 C4 | F,4 G,4 A,8 | A,16 | z4 E4 D8 | (F4 E2 D2 E8) | D4 (C8 B,4) | %20
w: Ga- bri-|e- lis|o- re,|Ga- bri-|e- lis o-|re,|fun- da|nos _ _ _|in pa- *|
w: su- mat|per te|pre- ces,|su- mat|per te pre-|ces,|qui pro|no- * * *|bis na- *|
w: i- ta|pa- ra|tu- tum,|i- ta|pa- ra tu-|tum:|ut vi-|den- * * *|tes Je- *|
 C8 z8 | z8 z4 E4 | G8 E8 | F8 D8- | (D8 ^C8) | D16 || z30 | z22 | z30 | z18 || %30
w: ce,|mu-|tans E-|vae no-||men.|||||
w: tus,|tu-|lit es-|se tu-||us.|||||
w: sum,|sem-|per col-|lae- te-||mur.|||||
[M:4/2] z4 A,4 _B,8 | A,6 G,2 F,2 G,2 A,2 _B,2 | C12 _B,4 | A,16 |] %34
w: A- *|||men.|
w: ||||
w: ||||
V:3
 D2 (A2 B2) G2 (A2 B2) d2 (c2 B2 A2 G2 A8) | A2 A2 (D2 E2) G2 (F2 E2) D8 | %2
w: 1.~A- ve _ Ma- ris _ stel- la, _ _ _ _|De- i Ma- * ter al- * ma,|
w: 3.~Sol- ve _ vin- cla _ re- is, _ _ _ _|pro- fer lu- * men coe- * cis:|
w: 5.~Vir- go _ sin- gu- * la- ris, _ _ _ _|in- ter om- * nes mi- * tis,|
 F2 E2 G2 A2 A2 (D4 E2 F2 E2 D2 C8) | E2 G2 E2 F2 E2 D8 ||[M:4/2] z16 | z16 | z8 D8 | (A12 B4) | %8
w: at- que sem- per vir- go, _ _ _ _ _|fe- lix coe- li por- ta.|||2.~Su-|mens _|
w: ma- la no- stra pel- le, _ _ _ _ _|bo- na cun- cta po- sce.|||4.~Mon-|stra _|
w: nos cul- pis sa- lu- tos, _ _ _ _ _|mi- tes fac et ca- stos.|||6.~Vi-|tam _|
 G8 A8- | (A4 B4 c8-) | (c8 B8) | (A4 G4) A8 | z8 A8- | A4 A4 D4 A4 | _B8 A4 A2 A2 | %15
w: il- lud|_ _ _||A- * ve|Ga-|* bri- e- lis|o- re, Ga- bri-|
w: te\_es- se|_ _ _||ma- * trem,|su-|* mat per te|pre- ces, su- mat|
w: prae- sta|_ _ _||pu- * ram,|i-|* ter pa- ra|tu- tum, i- ter|
 D4 E4 (F4 E4) | D8 z4 c4- | c4 B8 d4- | (d4 ^c2 B2 c8) | d4 (A6 G2 F4) | G16 | z4 E4 G8 | %22
w: e- lis o- *|re, fun-|* da nos|_ _ _ _|in pa- * *|ce,|mu- tans|
w: per te pre- *|ces, qui|_ pro no-||bis na- * *|tus,|tu- lit|
w: pa- ra tu- *|tum: ut|_ vi- den-||tes Je- * *|sum,|sem- per|
 (B6 AB c8) | A8 _B8- | (B8 A8) | ^F16 || D2 (A2 B2) G2 (A2 B2) d2 (c2 B2 A2 G2 A8) | %27
w: E- * * *|vae no-||men.|7.Sit laus _ De- o _ Pa- tri, _ _ _ _|
w: es- * * *|se tu-||us.||
w: col- * * *|lae- te-||mur.||
 A2 A2 (D2 E2) G2 (F2 E2) D8 | F2 E2 G2 A2 A2 (D4 E2 F2 E2 D2 C8) | E2 G2 E2 F2 E2 D8 || %30
w: sum- mo Chri- * sto de- * cus,|Spi- ri- tu- i San- cto, _ _ _ _ _|tri- bus ho- nor u- nus.|
w: |||
w: |||
[M:4/2] D16 | E8 D8 | C8 D8 | D16 |] %34
w: A-|||men.|
w: ||||
w: ||||
V:4
 z30 | z22 | z30 | z18 ||[M:4/2] z16 | z16 | z16 | A,,8 (D,8 | E,8) C,8 | (D,8 E,8 | F,8 G,8) | %11
w: |||||||2.~Su- mens|_ il-|lud _|_ _|
w: |||||||4.~Mon- stra|_ te\_es-|se _|_ _|
w: |||||||6.~Vi- tam|_ prae-|sta _|_ _|
 (F,4 E,4 D,8-) | (D,8 ^C,8) | D,4 D,8 D,4 | G,,8 A,,8 | _B,,8 A,,8 | z8 F,8 | E,8 G,8 | A,8 A,8 | %19
w: A- * *||ve Ga- bri-|e- lis|o- re,|fun-|da nos|in pa-|
w: ma- * *||trem: su- mat|per te|pre- ces,|qui|pro no-|bis na-|
w: pu- * *||ram, i- tter|pa- ra|tu- tum:|ut|vi- den-|tes Je-|
 D,2 E,2 F,2 E,2 D,8 | C,8 z4 E,4 | G,8 E,8- | E,8 C,8 | D,4 C,4 _B,,4 A,,4 | G,,8 A,,8 | D,16 || %26
w: ce, _ _ _ _|_ mu-|tans E-|* vae|no- * * *||men.|
w: tus, _ _ _ _|_ tu-|lit es-|* se|tu- * * *||us.|
w: sum, _ _ _ _|_ sem-|per col-|* lae-|te- * * *||mur.|
 z30 | z22 | z30 | z18 ||[M:4/2] z16 | A,,8 _B,,8 | A,,8 G,,8 | [D,,D,]16 |] %34
w: |||||A- *||men.|
w: ||||||||
w: ||||||||

